src/assets/icons/briefcase.svg

<svg width="14" height="14" viewBox="0 0 14 14" fill="none" xmlns="http://www.w3.org/2000/svg">
<g id="briefcase">
<g clip-path="url(#clip0_156_4597)">
<path id="Vector" fill-rule="evenodd" clip-rule="evenodd" d="M6 0.400024C5.24765 0.400024 4.4 0.911308 4.4 1.80002V2.80002H1.4C0.626801 2.80002 0 3.42683 0 4.20002V7.40002V12.2C0 12.9732 0.626801 13.6 1.4 13.6H12.6C13.3732 13.6 14 12.9732 14 12.2V7.40002V4.20002C14 3.42683 13.3732 2.80002 12.6 2.80002H9.6V1.80002C9.6 0.911308 8.75235 0.400024 8 0.400024H6ZM1.2 12.2V8.00002H3.2V9.80002C3.2 10.1314 3.46863 10.4 3.8 10.4H10.2C10.5314 10.4 10.8 10.1314 10.8 9.80002V8.00002H12.8V12.2C12.8 12.3105 12.7105 12.4 12.6 12.4H1.4C1.28954 12.4 1.2 12.3105 1.2 12.2ZM9.6 8.00002V9.20002H4.4V8.00002H9.6ZM10.2 6.80002H12.8V4.20002C12.8 4.08957 12.7105 4.00002 12.6 4.00002H9H5H1.4C1.28954 4.00002 1.2 4.08957 1.2 4.20002V6.80002H3.8H10.2ZM8.4 2.80002V1.80002C8.4 1.79552 8.39898 1.75706 8.33187 1.70329C8.26404 1.64895 8.1485 1.60002 8 1.60002H6C5.8515 1.60002 5.73596 1.64895 5.66813 1.70329C5.60102 1.75706 5.6 1.79552 5.6 1.80002V2.80002H8.4Z" fill="black"/>
</g>
</g>
<defs>
<clipPath id="clip0_156_4597">
<rect width="14" height="14" fill="white"/>
</clipPath>
</defs>
</svg>

<svg xmlns="http://www.w3.org/2000/svg" fill="none" viewBox="0 0 14 14"><g clip-path="url(#a)"><path fill="#000" fill-rule="evenodd" d="M6 .4c-.752 0-1.6.511-1.6 1.4v1h-3A1.4 1.4 0 0 0 0 4.2v8a1.4 1.4 0 0 0 1.4 1.4h11.2a1.4 1.4 0 0 0 1.4-1.4v-8a1.4 1.4 0 0 0-1.4-1.4h-3v-1C9.6.911 8.752.4 8 .4zM1.2 12.2V8h2v1.8a.6.6 0 0 0 .6.6h6.4a.6.6 0 0 0 .6-.6V8h2v4.2a.2.2 0 0 1-.2.2H1.4a.2.2 0 0 1-.2-.2M9.6 8v1.2H4.4V8zm.6-1.2h2.6V4.2a.2.2 0 0 0-.2-.2H1.4a.2.2 0 0 0-.2.2v2.6h9m-1.8-4v-1c0-.004-.001-.043-.068-.097A.54.54 0 0 0 8 1.6H6a.54.54 0 0 0-.332.103c-.067.054-.068.093-.068.097v1z" clip-rule="evenodd"/></g><defs><clipPath id="a"><path fill="#fff" d="M0 0h14v14H0z"/></clipPath></defs></svg>
